X: 13395
T: Flight Of The Thestrals
R: jig
M: 6/8
K: Aminor
ABc eAe|dAd cBA|FGA ABc|cde f2 f|
eae fdf|edc BGB|ABc def|edB A3:|
ABc def|eAe dcB|AcA dAd|efe d3|
AeA dAc|AdA cAB|AcA BAG|EFG A3:|

